common/media/svg/icons/network_wireless.svg

<?xml version="1.0" encoding="UTF-8" standalone="no"?>
<svg
   xmlns:dc="http://purl.org/dc/elements/1.1/"
   xmlns:cc="http://creativecommons.org/ns#"
   xmlns:rdf="http://www.w3.org/1999/02/22-rdf-syntax-ns#"
   xmlns:svg="http://www.w3.org/2000/svg"
   xmlns="http://www.w3.org/2000/svg"
   xmlns:sodipodi="http://sodipodi.sourceforge.net/DTD/sodipodi-0.dtd"
   xmlns:inkscape="http://www.inkscape.org/namespaces/inkscape"
   version="1.1"
   x="0px"
   y="0px"
   width="32px"
   height="32px"
   viewBox="0 0 32 32"
   enable-background="new 0 0 32 32"
   xml:space="preserve"
   id="svg2"
   >

<metadata><rdf:RDF>

   <cc:Work rdf:about="">
   <dc:format>image/svg+xml</dc:format>
   <dc:type rdf:resource="http://purl.org/dc/dcmitype/StillImage" />
   <dc:title>PICOL Icon</dc:title>
   <dc:date>2009-03-15</dc:date>
   <dc:creator><cc:Agent><dc:title>Melih Bilgil</dc:title></cc:Agent></dc:creator>
   <dc:rights><cc:Agent><dc:title>Creative Commons BY-SA</dc:title></cc:Agent></dc:rights>
   <dc:publisher><cc:Agent><dc:title>PICOL - Pictorial Communication Language</dc:title></cc:Agent></dc:publisher>
   <dc:identifier>http://blog.picol.org</dc:identifier>
   <dc:source>http://blog.picol.org</dc:source>
   <dc:language>en</dc:language>
   <dc:subject>
     <rdf:Bag>
       <rdf:li>PICOL</rdf:li>
       <rdf:li>icon</rdf:li>
       <rdf:li>icons</rdf:li>
       <rdf:li>sign</rdf:li>
       <rdf:li>GUI</rdf:li>
       <rdf:li>vector</rdf:li>
       <rdf:li>interface</rdf:li>
     </rdf:Bag>
   </dc:subject>
   <dc:description>This is one icon out of all PICOL icons</dc:description>
   <dc:contributor>
       <cc:Agent><dc:title>Melih Bilgil (www.lonja.de), Christopher Adjei (www.boffer.net)</dc:title></cc:Agent></dc:contributor>
   <cc:license rdf:resource="http://creativecommons.org/licenses/by-sa/3.0/" /></cc:Work>
   <cc:License rdf:about="http://creativecommons.org/licenses/by-sa/3.0/">
       <cc:permits rdf:resource="http://creativecommons.org/ns#Reproduction" />
       <cc:permits rdf:resource="http://creativecommons.org/ns#Distribution" />
       <cc:requires rdf:resource="http://creativecommons.org/ns#Notice" />
       <cc:requires rdf:resource="http://creativecommons.org/ns#Attribution" />
       <cc:permits rdf:resource="http://creativecommons.org/ns#DerivativeWorks" />
       <cc:requires rdf:resource="http://creativecommons.org/ns#ShareAlike" /></cc:License>

   </rdf:RDF>
</metadata>

<g id="background">
	<rect fill="none" width="32" height="32"/>
</g>
<g id="network_x5F_wireless">
	<g>
		<path d="M14,10v2c1.52,0.011,3.082,0.597,4.242,1.757S19.988,16.479,20,18h2c-0.012-2.033-0.792-4.106-2.344-5.657
			C18.105,10.792,16.032,10.011,14,10z M14,6l0,2c2.543,0.011,5.129,0.987,7.071,2.929c1.94,1.94,2.917,4.526,2.929,7.071h2
			c-0.011-3.056-1.183-6.154-3.515-8.486C20.153,7.182,17.055,6.011,14,6z M25.313,6.686C22.189,3.562,18.095,2,14,2l0,2
			c3.568,0.012,7.132,1.422,9.855,4.144C26.578,10.867,27.988,14.432,28,18h2C30,13.904,28.438,9.81,25.313,6.686z M18,17
			c0-1.657-1.344-3-3-3s-3,1.343-3,3c0,1.304,0.838,2.403,2,2.817v6.367c-0.098,0.035-0.193,0.072-0.286,0.116L5.7,18.286
			C5.887,17.896,6,17.463,6,17c0-1.657-1.343-3-3-3s-3,1.343-3,3c0,1.305,0.837,2.403,2,2.816v6.367C0.837,26.597,0,27.695,0,29
			c0,1.657,1.343,3,3,3s3-1.343,3-3c0-1.305-0.837-2.403-2-2.816v-6.367c0.098-0.035,0.193-0.072,0.285-0.116l8.015,8.015
			C12.113,28.105,12,28.538,12,29c0,1.657,1.343,3,3,3c1.656,0,3-1.343,3-3c0-1.305-0.838-2.403-2-2.816v-6.367
			C17.162,19.402,18,18.304,18,17z"/>
	</g>
</g>
</svg>

<?xml version="1.0" encoding="UTF-8" standalone="no"?>
<svg
   xmlns:dc="http://purl.org/dc/elements/1.1/"
   xmlns:cc="http://creativecommons.org/ns#"
   xmlns:rdf="http://www.w3.org/1999/02/22-rdf-syntax-ns#"
   xmlns:svg="http://www.w3.org/2000/svg"
   xmlns="http://www.w3.org/2000/svg"
   xmlns:sodipodi="http://sodipodi.sourceforge.net/DTD/sodipodi-0.dtd"
   xmlns:inkscape="http://www.inkscape.org/namespaces/inkscape"
   version="1.1"
   x="0px"
   y="0px"
   width="32px"
   height="32px"
   viewBox="0 0 32 32"
   enable-background="new 0 0 32 32"
   xml:space="preserve"
   id="svg2"
   inkscape:version="0.48.4 r9939"
   sodipodi:docname="network_wireless.svg"><defs
     id="defs3103" /><sodipodi:namedview
     pagecolor="#ffffff"
     bordercolor="#666666"
     borderopacity="1"
     objecttolerance="10"
     gridtolerance="10"
     guidetolerance="10"
     inkscape:pageopacity="0"
     inkscape:pageshadow="2"
     inkscape:window-width="640"
     inkscape:window-height="480"
     id="namedview3101"
     showgrid="false"
     inkscape:zoom="7.375"
     inkscape:cx="16"
     inkscape:cy="16"
     inkscape:window-x="53"
     inkscape:window-y="24"
     inkscape:window-maximized="0"
     inkscape:current-layer="svg2" /><metadata
     id="metadata3091"><rdf:RDF><cc:Work
         rdf:about=""><dc:format>image/svg+xml</dc:format><dc:type
           rdf:resource="http://purl.org/dc/dcmitype/StillImage" /><dc:title>PICOL Icon</dc:title><dc:date>2009-03-15</dc:date><dc:creator><cc:Agent><dc:title>Melih Bilgil</dc:title></cc:Agent></dc:creator><dc:rights><cc:Agent><dc:title>Creative Commons BY-SA</dc:title></cc:Agent></dc:rights><dc:publisher><cc:Agent><dc:title>PICOL - Pictorial Communication Language</dc:title></cc:Agent></dc:publisher><dc:identifier>http://blog.picol.org</dc:identifier><dc:source>http://blog.picol.org</dc:source><dc:language>en</dc:language><dc:subject><rdf:Bag><rdf:li>PICOL</rdf:li><rdf:li>icon</rdf:li><rdf:li>icons</rdf:li><rdf:li>sign</rdf:li><rdf:li>GUI</rdf:li><rdf:li>vector</rdf:li><rdf:li>interface</rdf:li></rdf:Bag></dc:subject><dc:description>This is one icon out of all PICOL icons</dc:description><dc:contributor><cc:Agent><dc:title>Melih Bilgil (www.lonja.de), Christopher Adjei (www.boffer.net)</dc:title></cc:Agent></dc:contributor><cc:license
           rdf:resource="http://creativecommons.org/licenses/by-sa/3.0/" /></cc:Work><cc:License
         rdf:about="http://creativecommons.org/licenses/by-sa/3.0/"><cc:permits
           rdf:resource="http://creativecommons.org/ns#Reproduction" /><cc:permits
           rdf:resource="http://creativecommons.org/ns#Distribution" /><cc:requires
           rdf:resource="http://creativecommons.org/ns#Notice" /><cc:requires
           rdf:resource="http://creativecommons.org/ns#Attribution" /><cc:permits
           rdf:resource="http://creativecommons.org/ns#DerivativeWorks" /><cc:requires
           rdf:resource="http://creativecommons.org/ns#ShareAlike" /></cc:License></rdf:RDF></metadata><g
     id="background"><rect
       fill="none"
       width="32"
       height="32"
       id="rect3094" /></g><path
     id="path3099"
     d="m 14,10 v 2 c 1.52,0.011 3.082,0.597 4.242,1.757 1.16,1.16 1.746,2.722 1.758,4.243 h 2 C 21.988,15.967 21.208,13.894 19.656,12.343 18.105,10.792 16.032,10.011 14,10 z m 0,-4 0,2 c 2.543,0.011 5.129,0.987 7.071,2.929 1.94,1.94 2.917,4.526 2.929,7.071 h 2 C 25.989,14.944 24.817,11.846 22.485,9.514 20.153,7.182 17.055,6.011 14,6 z M 25.313,6.686 C 22.189,3.562 18.095,2 14,2 l 0,2 c 3.568,0.012 7.132,1.422 9.855,4.144 2.723,2.723 4.133,6.288 4.145,9.856 h 2 C 30,13.904 28.438,9.81 25.313,6.686 z M 18,17 c 0,-1.657 -1.344,-3 -3,-3 -1.656,0 -3,1.343 -3,3 0,1.304 0.838,2.403 2,2.817 v 6.367 c -0.098,0.035 -0.193,0.072 -0.286,0.116 L 5.7,18.286 C 5.887,17.896 6,17.463 6,17 6,15.343 4.657,14 3,14 c -1.657,0 -3,1.343 -3,3 0,1.305 0.837,2.403 2,2.816 v 6.367 C 0.837,26.597 0,27.695 0,29 0,30.657 1.343,32 3,32 4.657,32 6,30.657 6,29 6,27.695 5.163,26.597 4,26.184 V 19.817 C 4.098,19.782 4.193,19.745 4.285,19.701 L 12.3,27.716 C 12.113,28.105 12,28.538 12,29 c 0,1.657 1.343,3 3,3 1.656,0 3,-1.343 3,-3 0,-1.305 -0.838,-2.403 -2,-2.816 V 19.817 C 17.162,19.402 18,18.304 18,17 z" /></svg>
